X:5
T:Berendans
R:misc
D:Dervish: Boys of Sligo
D:King's Galliard
D:Galway Express
O:Flemish
Z:id:hn-misc-5
M:2/4
L:1/8
Q:1/4=100
K:Am
eA A/B/c/d/ | eA A>B | cc Bc | de/d/ cd |
[1 eA A/B/c/d/ | eA A>B | cc B/A/G/B/ | A2 A2 :|
[2 ea ea | eA A>B | cc B/A/G/B/ | A2 A>B ||
|: ce d/c/B | ce d/c/B | g/d/B/d/ g_B | Af e^g |
ae cB | A/G/A/B/ c/d/e | f/e/d/c/ B/A/G/B/ |1 A2 A>B :|2 A2 A2 ||

